Yaru++/apps/scalable/com.github.danrabbit.lookbook.svg

<svg height="256" width="256" xmlns="http://www.w3.org/2000/svg" xmlns:xlink="http://www.w3.org/1999/xlink">
  <linearGradient id="linearGradient9039" gradientTransform="matrix(0 -1.3103166 1 0 -5.65651 325.14989)" gradientUnits="userSpaceOnUse" x1="64" x2="64" y1="92" y2="108">
    <stop offset="0"/>
    <stop offset="1" stop-color="#f1f0e9" stop-opacity="0"/>
  </linearGradient>
  <linearGradient id="linearGradient4358" gradientUnits="userSpaceOnUse" x1="88" x2="488" y1="88" y2="488">
    <stop offset="0" stop-opacity=".588235"/>
    <stop offset=".88" stop-opacity="0"/>
    <stop offset="1"/>
  </linearGradient>
  <filter id="filter4380" color-interpolation-filters="sRGB" height="1.088" width="1.106" x="-.05" y="-.04">
    <feGaussianBlur stdDeviation="8.48"/>
  </filter>
  <filter id="filter4346" color-interpolation-filters="sRGB" height="1.022" width="1.026" x="-.01" y="-.01">
    <feGaussianBlur stdDeviation="2.12"/>
  </filter>
  <radialGradient id="radialGradient1101" cx="50.506653" cy="121.22976" gradientTransform="matrix(-.06479672 8.2955196 -7.3602026 -.05749091 1002.9295 -386.74729)" gradientUnits="userSpaceOnUse" r="23.504883">
    <stop offset="0" stop-color="#5f5f5f"/>
    <stop offset=".26238" stop-color="#4f4f4f"/>
    <stop offset=".704952" stop-color="#3b3b3b"/>
    <stop offset="1" stop-color="#2b2b2b"/>
  </radialGradient>
  <path d="m189.84323 74c-70.59344 0-78.18921 7.250835-77.84323 77.98706v146.01294 146.01294c-.34598 70.73623 7.24979 77.98706 77.84323 77.98706h196.31354c70.59344 0 76.00668-7.27384 77.84323-77.98706v-146.01294-146.01294c0-70.737067-7.24979-77.98706-77.84323-77.98706z" filter="url(#filter4346)" opacity=".1" transform="matrix(.5 0 0 .5 -16.666462 -20.825235)"/>
  <path d="m189.84323 74c-70.59344 0-78.18921 7.250835-77.84323 77.98706v146.01294 146.01294c-.34598 70.73623 7.24979 77.98706 77.84323 77.98706h196.31354c70.59344 0 77.84323-7.24999 77.84323-77.98706v-146.01294-146.01294c0-70.737067-7.24979-77.98706-77.84323-77.98706z" fill="url(#linearGradient4358)" filter="url(#filter4380)" opacity=".3" transform="matrix(.5 0 0 .5 -16.666462 -20.825235)"/>
  <path d="m77.145138 13.174766c-36.098811 0-39.983003 3.690158-39.806081 39.689841v74.310153 74.31016c-.176922 35.99969 3.70727 39.68984 39.806081 39.68984h100.387322c36.09881 0 39.80608-3.68973 39.80608-39.68984v-74.31016-74.310153c0-36.000112-3.70727-39.689841-39.80608-39.689841z" opacity=".1"/>
  <path d="m176.40652 15.174766c35.29673 0 39.09461 3.625418 38.92162 38.993529v73.006465 73.00647c.17299 35.36812-3.62489 38.99353-38.92162 38.99353h-98.156762c-35.296716 0-38.921616-3.625-38.921616-38.99353v-73.00647-73.006465c0-35.368532 3.6249-38.993529 38.921616-38.993529z" fill="#1c87cf"/>
  <path d="m78.260818 239.17476c-35.296731 0-39.094875-3.62603-38.921885-38.99414v-2c-.17299 35.36811 3.625154 38.99414 38.921885 38.99414h98.156242c35.29673 0 38.92188-3.62561 38.92188-38.99414v2c0 35.36853-3.62515 38.99414-38.92188 38.99414z" opacity=".2"/>
  <path d="m86.337891 15.173828h-8.087891c-4.41209 0-8.329516.058362-11.806641.226563-3.477124.1682-6.514298.446339-9.166015.892578-2.651718.446238-4.917647 1.060416-6.853516 1.894531-.967934.417057-1.854548.889207-2.664062 1.423828-.809515.534621-1.542242 1.130961-2.207032 1.796875-.664789.665915-1.261163 1.401953-1.794922 2.212891-.533758.810937-1.005451 1.696325-1.421874 2.666015-.832847 1.939382-1.444953 4.210416-1.890626 6.867188-.445672 2.656772-.72452 5.699594-.892578 9.183594-.168057 3.484-.224609 7.409011-.224609 11.830078v73.005861 73.00781c0 4.42107.056552 8.34608.224609 11.83008.168058 3.484.446906 6.52682.892578 9.18359.445673 2.65677 1.057779 4.92781 1.890626 6.86719.416423.96969.888116 1.85508 1.421874 2.66602.533759.81093 1.130133 1.54697 1.794922 2.21289.66479.66591 1.397517 1.26225 2.207032 1.79687.809514.53462 1.696128 1.00677 2.664062 1.42383 1.935869.83411 4.201798 1.44829 6.853516 1.89453 2.651717.44624 5.688891.72438 9.166015.89258 3.477125.1682 7.394551.22461 11.806641.22461h8.087891z" fill="url(#radialGradient1101)" stroke-width="1.144691"/>
  <path d="m78.260818 239.17476c-35.296731 0-39.094875-3.62603-38.921885-38.99414v-2c-.17299 35.36811 3.625154 38.99414 38.921885 38.99414h98.156242c35.29673 0 38.92188-3.62561 38.92188-38.99414v2c0 35.36853-3.62515 38.99414-38.92188 38.99414z" opacity=".2"/>
  <path d="m102.33789 15.173828h-15.999999v224.000002h15.999999z" fill="url(#linearGradient9039)" opacity=".15" stroke-width="1.144691"/>
  <g fill="#fff">
    <path d="m176.41166 15.18086c35.29673 0 39.09488 3.62603 38.92189 38.99414v2c.17299-35.36811-3.62516-38.99414-38.92189-38.99414h-98.156243c-35.29673 0-38.92188 3.62561-38.92188 38.99414v-2c0-35.36853 3.62515-38.99414 38.92188-38.99414z" opacity=".4"/>
    <path d="m140.73525 83.459621c-21.29465 0-38.60057 17.305919-38.60057 38.600559s17.30592 38.60057 38.60057 38.60057a38.26603 38.26603 0 0 0 23.57207-8.18976l18.41891 18.41891 6.83874-6.83874-18.41891-18.41891a38.272464 38.272464 0 0 0 8.18976-23.57207c0-21.29464-17.30593-38.600559-38.60057-38.600559zm0 6.433429a32.16714 32.16714 0 0 1 32.16714 32.16713 32.16714 32.16714 0 0 1 -32.16714 32.16714 32.16714 32.16714 0 0 1 -32.16714-32.16713 32.16714 32.16714 0 0 1 32.16714-32.16714z" opacity=".8" stroke-width="6.433428"/>
  </g>
</svg>

<?xml version="1.0" encoding="UTF-8" standalone="no"?>
<svg
   xmlns:osb="http://www.openswatchbook.org/uri/2009/osb"
   xmlns:dc="http://purl.org/dc/elements/1.1/"
   xmlns:cc="http://creativecommons.org/ns#"
   xmlns:rdf="http://www.w3.org/1999/02/22-rdf-syntax-ns#"
   xmlns:svg="http://www.w3.org/2000/svg"
   xmlns="http://www.w3.org/2000/svg"
   xmlns:xlink="http://www.w3.org/1999/xlink"
   xmlns:sodipodi="http://sodipodi.sourceforge.net/DTD/sodipodi-0.dtd"
   xmlns:inkscape="http://www.inkscape.org/namespaces/inkscape"
   width="256"
   height="256"
   version="1.1"
   id="svg72"
   sodipodi:docname="com.github.danrabbit.lookbook.svg"
   inkscape:version="0.92.4 (5da689c313, 2019-01-14)">
  <metadata
     id="metadata76">
    <rdf:RDF>
      <cc:Work
         rdf:about="">
        <dc:format>image/svg+xml</dc:format>
        <dc:type
           rdf:resource="http://purl.org/dc/dcmitype/StillImage" />
        <dc:title />
      </cc:Work>
    </rdf:RDF>
  </metadata>
  <sodipodi:namedview
     pagecolor="#ffffff"
     bordercolor="#666666"
     borderopacity="1"
     objecttolerance="10"
     gridtolerance="10"
     guidetolerance="10"
     inkscape:pageopacity="0"
     inkscape:pageshadow="2"
     inkscape:window-width="1920"
     inkscape:window-height="1016"
     id="namedview74"
     showgrid="false"
     inkscape:zoom="3.2773438"
     inkscape:cx="70.026223"
     inkscape:cy="121.9585"
     inkscape:window-x="0"
     inkscape:window-y="27"
     inkscape:window-maximized="1"
     inkscape:current-layer="svg72" />
  <defs
     id="defs26">
    <linearGradient
       id="linearGradient5606"
       osb:paint="solid">
      <stop
         id="stop5608"
         offset="0"
         style="stop-color:#000000" />
    </linearGradient>
    <linearGradient
       id="linearGradient4526"
       osb:paint="solid">
      <stop
         id="stop4528"
         offset="0"
         style="stop-color:#ffffff" />
    </linearGradient>
    <linearGradient
       id="linearGradient3600-4"
       osb:paint="gradient">
      <stop
         id="stop3602-7"
         offset="0"
         style="stop-color:#f4f4f4" />
      <stop
         id="stop3604-6"
         offset="1"
         style="stop-color:#dbdbdb" />
    </linearGradient>
    <linearGradient
       id="linearGradient9039"
       x1="64"
       x2="64"
       y1="92"
       y2="108"
       gradientTransform="matrix(0,-1.3103166,1,0,-5.6565103,325.14989)"
       gradientUnits="userSpaceOnUse"
       xlink:href="#linearGradient9037" />
    <linearGradient
       id="linearGradient9037">
      <stop
         style="stop-color:#000000"
         id="stop9033"
         offset="0" />
      <stop
         style="stop-color:#f1f0e9;stop-opacity:0"
         id="stop9035"
         offset="1" />
    </linearGradient>
    <linearGradient
       id="linearGradient7182"
       x1="101.812"
       x2="201.072"
       y1="42"
       y2="268"
       gradientTransform="translate(-24.666462,-28.825235)"
       gradientUnits="userSpaceOnUse"
       xlink:href="#linearGradient4245" />
    <linearGradient
       id="linearGradient4245">
      <stop
         id="stop4241"
         offset="0"
         style="stop-color:#e8e8e8" />
      <stop
         id="stop4243"
         offset="1"
         style="stop-color:#f5f5f5" />
    </linearGradient>
    <linearGradient
       id="linearGradient4358"
       x1="88"
       x2="488"
       y1="88"
       y2="488"
       gradientUnits="userSpaceOnUse"
       xlink:href="#linearGradient4360" />
    <linearGradient
       id="linearGradient4360">
      <stop
         id="stop4362"
         offset="0"
         style="stop-color:#000000;stop-opacity:0.58823532" />
      <stop
         style="stop-color:#000000;stop-opacity:0"
         id="stop4364"
         offset=".88" />
      <stop
         id="stop4366"
         offset="1"
         style="stop-color:#000000" />
    </linearGradient>
    <filter
       style="color-interpolation-filters:sRGB"
       id="filter4380"
       width="1.106"
       height="1.088"
       x="-.05"
       y="-.04">
      <feGaussianBlur
         id="feGaussianBlur4382"
         stdDeviation="8.48" />
    </filter>
    <filter
       style="color-interpolation-filters:sRGB"
       id="filter4346"
       width="1.026"
       height="1.022"
       x="-.01"
       y="-.01">
      <feGaussianBlur
         id="feGaussianBlur4348"
         stdDeviation="2.12" />
    </filter>
    <radialGradient
       cx="64.388718"
       cy="114.8309"
       r="52.5"
       fx="64.388718"
       fy="114.8309"
       id="radialGradient3231"
       xlink:href="#linearGradient3287"
       gradientUnits="userSpaceOnUse"
       gradientTransform="matrix(1.3333434,0,0,0.08199654,-20.35227,-3.924137)" />
    <linearGradient
       id="linearGradient3287">
      <stop
         id="stop3289"
         style="stop-color:#000000;stop-opacity:1"
         offset="0" />
      <stop
         id="stop3291"
         style="stop-color:#000000;stop-opacity:0"
         offset="1" />
    </linearGradient>
    <linearGradient
       x1="23.99999"
       y1="4.999989"
       x2="23.99999"
       y2="43"
       id="linearGradient3142"
       xlink:href="#linearGradient3731"
       gradientUnits="userSpaceOnUse"
       gradientTransform="matrix(2.4594594,0,0,2.8918915,4.9729783,-5.405372)" />
    <linearGradient
       id="linearGradient3731">
      <stop
         id="stop3733"
         style="stop-color:#ffffff;stop-opacity:1"
         offset="0" />
      <stop
         id="stop3735"
         style="stop-color:#ffffff;stop-opacity:0.23529412"
         offset="0.02706478" />
      <stop
         id="stop3737"
         style="stop-color:#ffffff;stop-opacity:0.15686275"
         offset="0.97377032" />
      <stop
         id="stop3739"
         style="stop-color:#ffffff;stop-opacity:0.39215687"
         offset="1" />
    </linearGradient>
    <radialGradient
       cx="7.4956832"
       cy="8.4497671"
       r="19.99999"
       fx="7.4956832"
       fy="8.4497671"
       id="radialGradient3145"
       xlink:href="#linearGradient2867-449-88-871-390-598-476-591-434-148-57-177-641-289-620-227-114-444-680-744-8"
       gradientUnits="userSpaceOnUse"
       gradientTransform="matrix(5.0514012e-8,6.5315873,-6.427867,-1.2033678e-7,122.51425,-37.8306)" />
    <linearGradient
       id="linearGradient2867-449-88-871-390-598-476-591-434-148-57-177-641-289-620-227-114-444-680-744-8">
      <stop
         id="stop5430-8"
         style="stop-color:#5f5f5f;stop-opacity:1"
         offset="0" />
      <stop
         id="stop5432-3"
         style="stop-color:#4f4f4f;stop-opacity:1"
         offset="0.26238" />
      <stop
         id="stop5434-1"
         style="stop-color:#3b3b3b;stop-opacity:1"
         offset="0.704952" />
      <stop
         id="stop5436-8"
         style="stop-color:#2b2b2b;stop-opacity:1"
         offset="1" />
    </linearGradient>
    <linearGradient
       x1="24"
       y1="44"
       x2="24"
       y2="3.8990016"
       id="linearGradient3147"
       xlink:href="#linearGradient3707-319-631-407-324-616-674-812-821-107-178-392-400-6"
       gradientUnits="userSpaceOnUse"
       gradientTransform="matrix(2.5999999,0,0,2.7948717,5.8000043,-3.076929)" />
    <linearGradient
       id="linearGradient3707-319-631-407-324-616-674-812-821-107-178-392-400-6">
      <stop
         id="stop5440-4"
         style="stop-color:#272727;stop-opacity:1"
         offset="0" />
      <stop
         id="stop5442-3"
         style="stop-color:#454545;stop-opacity:1"
         offset="1" />
    </linearGradient>
    <linearGradient
       x1="10.654308"
       y1="1"
       x2="10.654308"
       y2="3"
       id="linearGradient3156"
       xlink:href="#linearGradient2346"
       gradientUnits="userSpaceOnUse"
       gradientTransform="matrix(2.6000003,0,0,2.7500175,0.5993211,0.124924)" />
    <linearGradient
       id="linearGradient2346">
      <stop
         id="stop2348"
         style="stop-color:#f5f5f5;stop-opacity:1"
         offset="0" />
      <stop
         id="stop2350"
         style="stop-color:#e1e1e1;stop-opacity:1"
         offset="1" />
    </linearGradient>
    <linearGradient
       x1="24"
       y1="44"
       x2="24"
       y2="3.8990016"
       id="linearGradient3158"
       xlink:href="#linearGradient3707-319-631-407-324-616-674-812-821-107-178-392-400-6"
       gradientUnits="userSpaceOnUse"
       gradientTransform="matrix(2.6000003,0,0,0.28205131,5.8000003,0.230768)" />
    <linearGradient
       x1="24.62738"
       y1="3.1234391"
       x2="24.640038"
       y2="4.882647"
       id="linearGradient4333"
       xlink:href="#linearGradient2346"
       gradientUnits="userSpaceOnUse"
       gradientTransform="matrix(2.6646671,0,0,4.0925893,4.3539233,-10.571687)" />
    <linearGradient
       x1="5.2122574"
       y1="0.065301567"
       x2="54.887218"
       y2="0.065301567"
       id="linearGradient4335"
       xlink:href="#linearGradient4652"
       gradientUnits="userSpaceOnUse"
       gradientTransform="matrix(1.9009526,0,0,1.9880919,6.8243933,0.040828)" />
    <linearGradient
       id="linearGradient4652">
      <stop
         id="stop4654"
         style="stop-color:#7239b3;stop-opacity:1"
         offset="0" />
      <stop
         id="stop4656"
         style="stop-color:#7239b3;stop-opacity:1"
         offset="0.95970964" />
      <stop
         id="stop4658"
         style="stop-color:#c2c2c2;stop-opacity:1"
         offset="0.96326458" />
      <stop
         id="stop4660"
         style="stop-color:#c2c2c2;stop-opacity:1"
         offset="1" />
    </linearGradient>
    <radialGradient
       cx="4.9929786"
       cy="43.5"
       r="2.5"
       fx="4.9929786"
       fy="43.5"
       id="radialGradient2455"
       xlink:href="#linearGradient3688-166-749"
       gradientUnits="userSpaceOnUse"
       gradientTransform="matrix(2.003784,0,0,1.4,27.98813,-17.4)" />
    <linearGradient
       id="linearGradient3688-166-749">
      <stop
         id="stop2883"
         style="stop-color:#181818;stop-opacity:1"
         offset="0" />
      <stop
         id="stop2885"
         style="stop-color:#181818;stop-opacity:0"
         offset="1" />
    </linearGradient>
    <radialGradient
       cx="4.9929786"
       cy="43.5"
       r="2.5"
       fx="4.9929786"
       fy="43.5"
       id="radialGradient2457"
       xlink:href="#linearGradient3688-166-749"
       gradientUnits="userSpaceOnUse"
       gradientTransform="matrix(2.003784,0,0,1.4,-20.01187,-104.4)" />
    <linearGradient
       x1="25.058096"
       y1="47.027729"
       x2="25.058096"
       y2="39.999443"
       id="linearGradient2459"
       xlink:href="#linearGradient3702-501-757"
       gradientUnits="userSpaceOnUse" />
    <linearGradient
       id="linearGradient3702-501-757">
      <stop
         id="stop2895"
         style="stop-color:#181818;stop-opacity:0"
         offset="0" />
      <stop
         id="stop2897"
         style="stop-color:#181818;stop-opacity:1"
         offset="0.5" />
      <stop
         id="stop2899"
         style="stop-color:#181818;stop-opacity:0"
         offset="1" />
    </linearGradient>
    <linearGradient
       y2="92.240685"
       x2="112.42694"
       y1="-17.604584"
       x1="112.42694"
       gradientTransform="translate(-47.770775,26.673377)"
       gradientUnits="userSpaceOnUse"
       id="linearGradient4318"
       xlink:href="#linearGradient5558" />
    <linearGradient
       id="linearGradient5558">
      <stop
         style="stop-color:#a56de2;stop-opacity:1"
         offset="0"
         id="stop5554" />
      <stop
         style="stop-color:#3689e6;stop-opacity:1"
         offset="1"
         id="stop5556" />
    </linearGradient>
    <linearGradient
       id="linearGradient874">
      <stop
         style="stop-color:#002e99;stop-opacity:1"
         offset="0"
         id="stop870" />
      <stop
         style="stop-color:#452981;stop-opacity:1"
         offset="1"
         id="stop872" />
    </linearGradient>
    <linearGradient
       xlink:href="#linearGradient874"
       id="linearGradient996"
       x1="102.18644"
       y1="119.17062"
       x2="102.18644"
       y2="9.3401127"
       gradientUnits="userSpaceOnUse" />
    <radialGradient
       inkscape:collect="always"
       xlink:href="#linearGradient2867-449-88-871-390-598-476-591-434-148-57-177-641-289-620-227-114-444-680-744-8"
       id="radialGradient1101"
       cx="50.506653"
       cy="121.22976"
       fx="50.506653"
       fy="121.22976"
       r="23.504883"
       gradientTransform="matrix(-0.06479672,8.2955196,-7.3602026,-0.05749091,1002.9295,-386.74729)"
       gradientUnits="userSpaceOnUse" />
  </defs>
  <path
     style="opacity:0.1;filter:url(#filter4346)"
     d="M 189.84323,74 C 119.24979,74 111.65402,81.250835 112,151.98706 V 298 444.01294 C 111.65402,514.74917 119.24979,522 189.84323,522 H 386.15677 C 456.75021,522 462.16345,514.72616 464,444.01294 V 298 151.98706 C 464,81.249993 456.75021,74 386.15677,74 Z"
     transform="matrix(0.5,0,0,0.5,-16.666462,-20.825235)"
     id="path28" />
  <path
     d="M 189.84323,74 C 119.24979,74 111.65402,81.250835 112,151.98706 V 298 444.01294 C 111.65402,514.74917 119.24979,522 189.84323,522 H 386.15677 C 456.75021,522 464,514.75001 464,444.01294 V 298 151.98706 C 464,81.249993 456.75021,74 386.15677,74 Z"
     transform="matrix(0.5,0,0,0.5,-16.666462,-20.825235)"
     style="opacity:0.3;fill:url(#linearGradient4358);filter:url(#filter4380)"
     id="path30" />
  <path
     style="opacity:0.1"
     d="m 77.145138,13.174766 c -36.098811,0 -39.983003,3.690158 -39.806081,39.689841 v 74.310153 74.31016 c -0.176922,35.99969 3.70727,39.68984 39.806081,39.68984 H 177.53246 c 36.09881,0 39.80608,-3.68973 39.80608,-39.68984 V 127.17476 52.864607 c 0,-36.000112 -3.70727,-39.689841 -39.80608,-39.689841 z"
     id="path32" />
  <path
     style="fill:#1c87cf;fill-opacity:1"
     d="m 176.40652,15.174766 c 35.29673,0 39.09461,3.625418 38.92162,38.993529 v 73.006465 73.00647 c 0.17299,35.36812 -3.62489,38.99353 -38.92162,38.99353 H 78.249758 c -35.296716,0 -38.921616,-3.625 -38.921616,-38.99353 V 127.17476 54.168295 c 0,-35.368532 3.6249,-38.993529 38.921616,-38.993529 z"
     id="path34" />
  <path
     style="opacity:0.2"
     d="m 78.260818,239.17476 c -35.296731,0 -39.094875,-3.62603 -38.921885,-38.99414 v -2 c -0.17299,35.36811 3.625154,38.99414 38.921885,38.99414 h 98.156242 c 35.29673,0 38.92188,-3.62561 38.92188,-38.99414 v 2 c 0,35.36853 -3.62515,38.99414 -38.92188,38.99414 z"
     id="path38" />
  <path
     style="fill:url(#radialGradient1101);stroke-width:1.14469063;fill-opacity:1"
     d="M 86.337891 15.173828 L 78.25 15.173828 C 73.83791 15.173828 69.920484 15.23219 66.443359 15.400391 C 62.966235 15.568591 59.929061 15.84673 57.277344 16.292969 C 54.625626 16.739207 52.359697 17.353385 50.423828 18.1875 C 49.455894 18.604557 48.56928 19.076707 47.759766 19.611328 C 46.950251 20.145949 46.217524 20.742289 45.552734 21.408203 C 44.887945 22.074118 44.291571 22.810156 43.757812 23.621094 C 43.224054 24.432031 42.752361 25.317419 42.335938 26.287109 C 41.503091 28.226491 40.890985 30.497525 40.445312 33.154297 C 39.99964 35.811069 39.720792 38.853891 39.552734 42.337891 C 39.384677 45.821891 39.328125 49.746902 39.328125 54.167969 L 39.328125 127.17383 L 39.328125 200.18164 C 39.328125 204.60271 39.384677 208.52772 39.552734 212.01172 C 39.720792 215.49572 39.99964 218.53854 40.445312 221.19531 C 40.890985 223.85208 41.503091 226.12312 42.335938 228.0625 C 42.752361 229.03219 43.224054 229.91758 43.757812 230.72852 C 44.291571 231.53945 44.887945 232.27549 45.552734 232.94141 C 46.217524 233.60732 46.950251 234.20366 47.759766 234.73828 C 48.56928 235.2729 49.455894 235.74505 50.423828 236.16211 C 52.359697 236.99622 54.625626 237.6104 57.277344 238.05664 C 59.929061 238.50288 62.966235 238.78102 66.443359 238.94922 C 69.920484 239.11742 73.83791 239.17383 78.25 239.17383 L 86.337891 239.17383 L 86.337891 15.173828 z "
     id="path926" />
  <path
     style="opacity:0.2"
     d="m 78.260818,239.17476 c -35.296731,0 -39.094875,-3.62603 -38.921885,-38.99414 v -2 c -0.17299,35.36811 3.625154,38.99414 38.921885,38.99414 h 98.156242 c 35.29673,0 38.92188,-3.62561 38.92188,-38.99414 v 2 c 0,35.36853 -3.62515,38.99414 -38.92188,38.99414 z"
     id="path48" />
  <path
     style="opacity:0.15;fill:url(#linearGradient9039);stroke-width:1.14469063"
     d="M 102.33789 15.173828 L 86.337891 15.173828 L 86.337891 239.17383 L 102.33789 239.17383 L 102.33789 15.173828 z "
     id="path894" />
  <path
     id="path937"
     d="m 176.41166,15.18086 c 35.29673,0 39.09488,3.62603 38.92189,38.99414 v 2 C 215.50654,20.80689 211.70839,17.18086 176.41166,17.18086 H 78.255417 c -35.29673,0 -38.92188,3.62561 -38.92188,38.99414 v -2 c 0,-35.36853 3.62515,-38.99414 38.92188,-38.99414 z"
     style="opacity:0.4;fill:#ffffff;fill-opacity:1"
     inkscape:connector-curvature="0" />
  <path
     d="m 140.73525,83.459621 c -21.29465,0 -38.60057,17.305919 -38.60057,38.600559 0,21.29464 17.30592,38.60057 38.60057,38.60057 a 38.26603,38.26603 0 0 0 23.57207,-8.18976 l 18.41891,18.41891 6.83874,-6.83874 -18.41891,-18.41891 a 38.272464,38.272464 0 0 0 8.18976,-23.57207 c 0,-21.29464 -17.30593,-38.600559 -38.60057,-38.600559 z m 0,6.433429 a 32.16714,32.16714 0 0 1 32.16714,32.16713 32.16714,32.16714 0 0 1 -32.16714,32.16714 32.16714,32.16714 0 0 1 -32.16714,-32.16713 32.16714,32.16714 0 0 1 32.16714,-32.16714 z"
     font-weight="400"
     overflow="visible"
     id="path2"
     inkscape:connector-curvature="0"
     style="color:#000000;font-weight:400;font-family:sans-serif;overflow:visible;opacity:0.8;fill:#ffffff;fill-opacity:1;stroke-width:6.43342781" />
</svg>
